X:6
T:Ashleyâ€™s Hornpipe. JMP.006
T:Astleyâ€™s Ride,aka. JMP.006
M:C|
L:1/4
Q:1/2=90
S:John Miller MS. Perth, 1799.(for the fife)
R:.Misc.
O:Scotland
A:Perth
N:Key given as G major. But it isnâ€™t
H:1799
Z:vmp.C. Graeb
K:D Major
â€œ_Key Gmaj in MSâ€a/f/ | ddd c/d/ | eee f/e/ | \
d/c/B/A/ B/d/c/e/ |dff a/f/ |!
ddd c/d/ | eee f/e/ | d/c/B/A/ B/d/c/e/ |ddd :||:!
d/e/ | fff e/f/ | ggg g/f/ | eee d/e/ | fff a/f/ |!
ddd c/d/ | eee f/e/ | d/c/B/A/ B/d/c/e/ | ddd ğŸ˜

